static/images/platforms/dark/dotnet.svg

<svg xmlns="http://www.w3.org/2000/svg" width="150" height="150" fill="none"><path d="M3.975 3.975h142.05v142.05H3.975Zm25.49 90.798c.76-.725 1.141-1.586 1.141-2.582 0-1.016-.381-1.885-1.141-2.61-.742-.725-1.652-1.088-2.731-1.088-1.06 0-1.962.363-2.704 1.088-.743.725-1.114 1.594-1.114 2.61 0 .996.371 1.857 1.114 2.582.742.707 1.644 1.06 2.704 1.06 1.079 0 1.989-.353 2.731-1.06ZM69.133 56.25h-6.072v25.12c0 2.465.089 4.214.266 5.247h-.106c-.213-.435-.69-1.232-1.432-2.392L44.235 56.25h-7.344v38.985h6.098V69.68c0-2.737-.07-4.522-.212-5.356h.159c.301.78.681 1.532 1.141 2.257l18.162 28.654h6.894Zm29.698 33.521H83.797V78.244h13.072v-5.465H83.797V61.742h14.186V56.25H77.486v38.985h21.345Zm30.335-33.521h-28.133v5.492h10.898v33.493h6.311V61.742h10.924Z" style="fill:#e4e4e7"/><g clip-path="url(#a)"><path d="M26.734 96.333a4.504 4.504 0 0 1-3.054-1.202c-.797-.805-1.264-1.845-1.264-2.941 0-1.113.467-2.161 1.264-2.967a4.435 4.435 0 0 1 3.054-1.23c1.171 0 2.254.451 3.079 1.228.816.806 1.293 1.854 1.293 2.969 0 1.098-.48 2.14-1.296 2.945a4.519 4.519 0 0 1-3.076 1.198Zm2.387-1.922c.703-.645.985-1.325.985-2.22 0-.915-.282-1.604-.986-2.248-.66-.672-1.4-.95-2.386-.95-.967 0-1.694.274-2.355.945-.687.645-.963 1.336-.963 2.253 0 .897.273 1.577.961 2.222.66.654 1.388.92 2.357.92.988 0 1.726-.267 2.387-.922ZM61.964 95.735l-18.31-28.886a15.132 15.132 0 0 1-.211-.345c.031.865.046 1.925.046 3.176v26.055h-7.098V55.75h8.121l17.699 28.207c.151.236.292.459.422.666a63.677 63.677 0 0 1-.072-3.253V55.75h7.072v39.985Zm6.669-38.985h-5.072v24.62c0 2.453.085 4.159.258 5.163l.101.584h-1.012l-.137-.281c-.202-.416-.665-1.188-1.403-2.342L43.959 56.75h-6.568v37.985h5.098V69.68c0-2.727-.067-4.47-.205-5.272l-.1-.584h1.096l.123.32c.29.757.648 1.465 1.096 2.169l18.015 28.422h6.119ZM76.986 95.735V55.75h21.497v6.492H84.297v10.037h13.072v6.465H84.297v10.527h15.034v6.464Zm21.345-5.464H83.297V77.744h13.072v-4.465H83.297V61.242h14.186V56.75H77.986v37.985h20.345ZM118.742 62.242v33.493h-7.311V62.242h-10.898V55.75h29.133v6.492Zm9.924-5.492h-27.133v4.492h10.898v33.493h5.311V61.242h10.924Z" style="fill:#e4e4e7"/></g><defs><clipPath id="a"><path fill="#fff" d="M0 0h150v150H0z"/></clipPath></defs></svg>

<?xml version="1.0" encoding="utf-8"?>
<svg width="150" height="150" viewBox="0 0 150 150" fill="none" xmlns="http://www.w3.org/2000/svg">
  <path d="M 3.975 3.975 L 146.025 3.975 L 146.025 146.025 L 3.975 146.025 Z M 29.465 94.773 C 30.225 94.048 30.606 93.187 30.606 92.191 C 30.606 91.175 30.225 90.306 29.465 89.581 C 28.723 88.856 27.813 88.493 26.734 88.493 C 25.674 88.493 24.772 88.856 24.03 89.581 C 23.287 90.306 22.916 91.175 22.916 92.191 C 22.916 93.187 23.287 94.048 24.03 94.773 C 24.772 95.48 25.674 95.833 26.734 95.833 C 27.813 95.833 28.723 95.48 29.465 94.773 Z M 69.133 56.25 L 63.061 56.25 L 63.061 81.37 C 63.061 83.835 63.15 85.584 63.327 86.617 L 63.221 86.617 C 63.008 86.182 62.531 85.385 61.789 84.225 L 44.235 56.25 L 36.891 56.25 L 36.891 95.235 L 42.989 95.235 L 42.989 69.68 C 42.989 66.943 42.919 65.158 42.777 64.324 L 42.936 64.324 C 43.237 65.104 43.617 65.856 44.077 66.581 L 62.239 95.235 L 69.133 95.235 Z M 98.831 89.771 L 83.797 89.771 L 83.797 78.244 L 96.869 78.244 L 96.869 72.779 L 83.797 72.779 L 83.797 61.742 L 97.983 61.742 L 97.983 56.25 L 77.486 56.25 L 77.486 95.235 L 98.831 95.235 Z M 129.166 56.25 L 101.033 56.25 L 101.033 61.742 L 111.931 61.742 L 111.931 95.235 L 118.242 95.235 L 118.242 61.742 L 129.166 61.742 Z" style="fill: rgb(228, 228, 231);"/>
  <g clip-path="url(#clip0_1704_16)">
    <path d="M 26.734 96.333 C 25.582 96.333 24.504 95.889 23.68 95.131 C 22.883 94.326 22.416 93.286 22.416 92.19 C 22.416 91.077 22.883 90.029 23.68 89.223 C 24.504 88.445 25.58 87.993 26.734 87.993 C 27.905 87.993 28.988 88.444 29.813 89.221 C 30.629 90.027 31.106 91.075 31.106 92.19 C 31.106 93.288 30.626 94.33 29.81 95.135 C 28.986 95.894 27.903 96.333 26.734 96.333 Z M 29.121 94.411 C 29.824 93.766 30.106 93.086 30.106 92.191 C 30.106 91.276 29.824 90.587 29.12 89.943 C 28.46 89.271 27.72 88.993 26.734 88.993 C 25.767 88.993 25.04 89.267 24.379 89.938 C 23.692 90.583 23.416 91.274 23.416 92.191 C 23.416 93.088 23.689 93.768 24.377 94.413 C 25.037 95.067 25.765 95.333 26.734 95.333 C 27.722 95.333 28.46 95.066 29.121 94.411 Z" style="fill: rgb(228, 228, 231);"/>
    <path d="M 61.964 95.735 L 43.654 66.849 C 43.582 66.735 43.512 66.62 43.443 66.504 C 43.474 67.369 43.489 68.429 43.489 69.68 L 43.489 95.735 L 36.391 95.735 L 36.391 55.75 L 44.512 55.75 L 62.211 83.957 C 62.362 84.193 62.503 84.416 62.633 84.623 C 62.586 83.722 62.561 82.635 62.561 81.37 L 62.561 55.75 L 69.633 55.75 L 69.633 95.735 Z M 68.633 56.75 L 63.561 56.75 L 63.561 81.37 C 63.561 83.823 63.646 85.529 63.819 86.533 L 63.92 87.117 L 62.908 87.117 L 62.771 86.836 C 62.569 86.42 62.106 85.648 61.368 84.494 L 43.959 56.75 L 37.391 56.75 L 37.391 94.735 L 42.489 94.735 L 42.489 69.68 C 42.489 66.953 42.422 65.21 42.284 64.408 L 42.184 63.824 L 43.28 63.824 L 43.403 64.144 C 43.693 64.901 44.051 65.609 44.499 66.313 L 62.514 94.735 L 68.633 94.735 Z" style="fill: rgb(228, 228, 231);"/>
    <path d="M 76.986 95.735 L 76.986 55.75 L 98.483 55.75 L 98.483 62.242 L 84.297 62.242 L 84.297 72.279 L 97.369 72.279 L 97.369 78.744 L 84.297 78.744 L 84.297 89.271 L 99.331 89.271 L 99.331 95.735 Z M 98.331 90.271 L 83.297 90.271 L 83.297 77.744 L 96.369 77.744 L 96.369 73.279 L 83.297 73.279 L 83.297 61.242 L 97.483 61.242 L 97.483 56.75 L 77.986 56.75 L 77.986 94.735 L 98.331 94.735 Z" style="fill: rgb(228, 228, 231);"/>
    <path d="M 118.742 62.242 L 118.742 95.735 L 111.431 95.735 L 111.431 62.242 L 100.533 62.242 L 100.533 55.75 L 129.666 55.75 L 129.666 62.242 Z M 128.666 56.75 L 101.533 56.75 L 101.533 61.242 L 112.431 61.242 L 112.431 94.735 L 117.742 94.735 L 117.742 61.242 L 128.666 61.242 Z" style="fill: rgb(228, 228, 231);"/>
  </g>
  <defs>
    <clipPath id="clip0_1704_16">
      <rect width="150" height="150" fill="white"/>
    </clipPath>
  </defs>
</svg>
